X: 270
T: Beni Bîgâne-i Hâb Etti
C: Mehmet Cemil Bey
O: Turkey
F: http://compmusic.upf.edu/node/140
N: suzinak--sarki--aksak--beni_bigane-i--mehmet_cemil_bey
N: makam= suzinak
N: form= sarki
N: usul= aksak = 9/8
M: 9/8
L: 1/16
K: C _1/4B _7/8e ^f 
Q: 1/4=120
%%MIDI tuningsystem comma53
B3/2A/BG c3/2B/c=e dedc BcBA G2 | \
w:  ARANAĞME  | 
B3/2A/ BGc3/2B/ c=edc Bcd4z2  | 
w:   | 
B3/2A/BG c3/2B/c=e dedc BcBA Gg | \
w:   | 
ag =f=ede dcBc ABG4z2  | 
w:   | 
B3/2A/BG c3/2B/c=e dedc BcBA G2 | \
w:  ARANAĞME  | 
B3/2A/ BGc3/2B/ c=edc Bcd4z2  | 
w:   | 
B3/2A/BG c3/2B/c=e dedc BcBA Gg | \
w:   | 
ag =f=ede dcBc ABG4z2  | 
w:   | 
z4 c2d2 d8 c2 | e2 d2e2 g2f2 e2d2 c2B2  | \
w:  Be ni  bî  |  gâ *  ne  i  hâb   | 
B2AB c2BA G8 z2 | 
w:  et *  *  ti  ke *  der    | 
g2 fedc dfed c2B4z2  | _b2ag fef2 agfe d6 | 
w:  Ah   |  ah   | 
z2 _b2a2 g2f2 e2ag feed  | d6fe dcBc d4 ef | 
w:  et *  *  *  *  ti  *  *  *  ke  |  der   SAZ  | 
d2 z2d2 g2g8-g2  | f2g2 a2_bc' a2g2 f2e2 d2 | \
w:  *  Dü şü nüp   |  ah  *  e de *  rim   | 
ed c2d2 =eg=f4e4d2  | 
w:  tâ *  *  be  se *  her   | 
d3c d2e2 d2c2 B3A AG | G6 fedc Bcd4ef  | \
w:  tâ *  *  *  *  *  be  *  se  |  her   SAZ  | 
d2z2 d2g2 g8-g2 | 
w:  *  Dü şü nüp   | 
f2 g2a2 _bc'a2 g2f2 e2d2  | edc2 d2=eg =f4 e4 d2 | \
w:  ah  *  e de *  rim   |  tâ *  *  be  se *  her   | 
d3cd2 e2d2 c2B3AAG  | 
w:  tâ *  *  *  *  *  be  *  se  | 
G6a_b agfg a4 z2 | z2 g4 a2a8g2  | a3_b c'2d'2 c'2b2 a4 g2 | 
w:  her   SAZ  |  Art tı rır   |  der *  di mi  müz  | 
gf2efe edd8z2  | g2fe dcdf edc2 B4 z2 | 
w:  lim  *  *  ge *  ce *  ler    |  Ah   | 
_b2 agfe f2ag fed6  | z2_b2 a2g2 f2e2 agfe ed | 
w:  ah   |  et *  *  *  *  ti  *  *  *  ke  | 
d6 fedc Bcd4ef  | d2z2 d2g2 g8-g2 | f2 g2a2 _bc'a2 g2f2 e2d2  | 
w:  der   SAZ  |  *  Dü şü nüp   |  ah  *  e de *  rim   | 
edc2 d2=eg =f4 e4 d2 | d3cd2 e2d2 c2B3AAG  | \
w:  tâ *  *  be  se *  her   |  tâ *  *  *  *  *  be  *  se  | 
G6fe dcBc d4 ef | 
w:  her   SAZ  | 
d2 z2d2 g2g8-g2  | f2g2 a2_bc' a2g2 f2e2 d2 | \
w:  *  Dü şü nüp   |  ah  *  e de *  rim   | 
ed c2d2 =eg=f4e4d2  | 
w:  tâ *  *  be  se *  her   | 
d3c d2e2 d2c2 B3A AG | G6 |
w:  tâ *  *  *  *  *  be  *  se  |  her    | 


